assets/svg/currencies/indices/CEX.svg

<svg width="300" height="300" viewBox="0 0 300 300" fill="none" xmlns="http://www.w3.org/2000/svg">
<path d="M150 300C232.843 300 300 232.843 300 150C300 67.1573 232.843 0 150 0C67.1573 0 0 67.1573 0 150C0 232.843 67.1573 300 150 300Z" fill="#B2A1FB"/>
<path d="M51 150C51 142.586 52.4145 136.108 55.2434 130.565C58.1413 124.952 62.2467 120.622 67.5595 117.573C72.9414 114.524 79.2547 113 86.4995 113C92.1573 113 97.2286 114.109 101.714 116.326C106.198 118.543 109.821 121.661 112.581 125.68C115.341 129.699 116.997 134.341 117.549 139.607H102.024C101.127 135.449 99.2296 132.193 96.3317 129.837C93.5028 127.412 89.9494 126.199 85.6715 126.199C79.8757 126.199 75.2873 128.382 71.9064 132.747C68.5255 137.112 66.835 142.863 66.835 150C66.835 157.067 68.5255 162.818 71.9064 167.253C75.2873 171.618 79.8757 173.801 85.6715 173.801C89.9494 173.801 93.5028 172.623 96.3317 170.267C99.2296 167.842 101.127 164.551 102.024 160.393H117.549C116.997 165.659 115.341 170.301 112.581 174.32C109.821 178.339 106.198 181.457 101.714 183.674C97.2286 185.891 92.1573 187 86.4995 187C79.2547 187 72.9414 185.476 67.5595 182.427C62.2467 179.378 58.1413 175.082 55.2434 169.539C52.4145 163.927 51 157.414 51 150Z" fill="white"/>
<path d="M126.568 113.624L175.212 113.624V127.031L142.093 127.031V143.348H169.002V156.132H142.093V172.969H176.35V186.376L126.568 186.376L126.568 113.624Z" fill="white"/>
<path d="M204.738 149.272L182.176 113.624H201.012L215.295 136.489L229.888 113.624H246.862L224.299 149.272L248 186.376L229.06 186.376L213.639 161.952L197.907 186.376H181.037L204.738 149.272Z" fill="white"/>
</svg>

<svg viewBox="0 0 300 300" fill="none" xmlns="http://www.w3.org/2000/svg">
    <path d="M150 300c82.843 0 150-67.157 150-150S232.843 0 150 0 0 67.157 0 150s67.157 150 150 150z" fill="#B2A1FB"/>
    <path d="M51 150c0-7.414 1.414-13.892 4.243-19.435 2.898-5.613 7.004-9.943 12.316-12.992C72.942 114.524 79.255 113 86.5 113c5.658 0 10.73 1.109 15.215 3.326 4.484 2.217 8.107 5.335 10.867 9.354 2.76 4.019 4.416 8.661 4.968 13.927h-15.525c-.897-4.158-2.794-7.414-5.692-9.77-2.83-2.425-6.383-3.638-10.66-3.638-5.796 0-10.385 2.183-13.766 6.548-3.38 4.365-5.071 10.116-5.071 17.253 0 7.067 1.69 12.818 5.071 17.253 3.381 4.365 7.97 6.548 13.765 6.548 4.278 0 7.832-1.178 10.66-3.534 2.899-2.425 4.796-5.716 5.693-9.874h15.525c-.552 5.266-2.208 9.908-4.968 13.927s-6.383 7.137-10.867 9.354C97.229 185.891 92.157 187 86.499 187c-7.244 0-13.558-1.524-18.94-4.573-5.312-3.049-9.418-7.345-12.316-12.888C52.414 163.927 51 157.414 51 150zm75.568-36.376h48.644v13.407h-33.119v16.317h26.909v12.784h-26.909v16.837h34.257v13.407h-49.782v-72.752zm78.17 35.648l-22.562-35.648h18.836l14.283 22.865 14.593-22.865h16.974l-22.563 35.648L248 186.376h-18.94l-15.421-24.424-15.732 24.424h-16.87l23.701-37.104z" fill="#fff"/>
</svg>
